X:70
T: Mulik Ilon lepedője (2)
K: Bb
M: 3/4
L: 1/4
d/g/ g g | g/a/ f f | 
g/a/ g f | d/c/ d d | 
g/c/ c c | c/d/ c B | 
c/d/ c B | G/F/  G G | 

